X: 3
T: Leckan Mor
R: jig
M: 6/8
L: 1/8
K: Bmin
|: FBB dcB | f2b afd | ecc cde | gfe dcB |
FBB dcB | efb afd | efg fdB |1 cdF B3 :|2 cdF B2f||
b2f afg | fdB Bcd | cde efg| fdB c2f |
b2f afg | fdB Bcd | cde A2e | edc B2f |
b2f afg | fdB Bcd | cde edc | def efa |
bfa efg | fdB c2F | cde def | fed edc |]


Tune 5742	Setting 5742

